material/.icons/material/chart-pie.svg

<svg xmlns="http://www.w3.org/2000/svg" viewBox="0 0 24 24"><path d="M11 2v20c-5.1-.5-9-4.8-9-10s3.9-9.5 9-10m2 0v9h9c-.5-4.8-4.2-8.5-9-9m0 11v9c4.7-.5 8.5-4.2 9-9h-9z"/></svg>

<?xml version="1.0" encoding="UTF-8"?><!DOCTYPE svg PUBLIC "-//W3C//DTD SVG 1.1//EN" "http://www.w3.org/Graphics/SVG/1.1/DTD/svg11.dtd"><svg xmlns="http://www.w3.org/2000/svg" xmlns:xlink="http://www.w3.org/1999/xlink" version="1.1" id="mdi-chart-pie" width="24" height="24" viewBox="0 0 24 24"><path d="M11,2V22C5.9,21.5 2,17.2 2,12C2,6.8 5.9,2.5 11,2M13,2V11H22C21.5,6.2 17.8,2.5 13,2M13,13V22C17.7,21.5 21.5,17.8 22,13H13Z" /></svg>
